X:0743
M:6/8
L:1/8
Q:3/8=120
K:D
f/g/|aba  afd|bc'b bc'd'|aba afd |fee efg|
     aba  afd|bc'b bc'd'|afd e>de|fdd d2|]

